X: 18
T: Corsican Dance
R: jig
M: 6/8
L: 1/8
Z: 2011 John Chambers <jc:trillian.mit.edu>
B: William Randall eds "Twenty Four Country Dances", London 1771, p.11
K: G
|:\
G3 DEF | GDC B,A,G, | G3 FGA | BAG FED |\
G3 DEF | GDC B,A,G, | A,cA FDF | G3 G,3 :|
|:\
d3 Bcd | c3 ABc | BcA EFG | F3 D3 |\
GDC B,A,G, | A,3 c3 | BAG FED | G3 G,3 :|
% - - - - - - - - - - - - - - - - - - - - - - - - -
%%begintext align
%% Turn your Partner with your Right Hand cast
%% off turn with your Left Hand cast off again
%% lead up to the top cast off Right and Left
%% at top
%%endtext
% - - - - - - - - - - - - - - - - - - - - - - - - -

%%sep 1 1 500
%%sep 1 1 500
